X:0863
T:The Hare in Corn.
M:6/8
L:1/8
Q:3/8=120
I: :: :|
Z:Jack Campin * www.campin.me.uk * 2009
K:G
c|BGB cde|gdc B2G|cec dBg|cAA A2
c|BGB def|gdc B2G|Aag fef|gGG G2:|
c|dBB GBB|dBB GBB|cAA FAA|cAA FAA|
  dBB ecc|fdd gee|dBB cAf|gGG G2:|

